X:1
T:The Last Fish Supper
M:6/8
L:1/8
Q:80
C:Colin Magee
S:March
K:HP
|: e | \
{gAGAG}A2{d}c{gBd}B2{d}c | \
{g}A3/2{d}c/2e{Gdc}d3/2{g}f/2a | \
{ef}e3/2{g}c/2ea3/2g/2f |
{gef}e3/2A/2{d}c{gBd}B2e{gAGAG}A2{d}c{gBd}B2{d}c | \
{g}A3/2{d}c/2e{Gdc}d3/2{g}f/2a | \
e/2a3/2c{gde}d3/2B/2{d}c |
{g}A3{GAG}A2 :: \
e | \
{gfg}f2d{g}f3/2g/2a | \
{ef}e3{gcd}c2e |
{gef}e3/2{g}c/2ea3/2g/2f | \
{gef}e3/2A/2{d}c{gBd}B2e|1 {gfg}f2d{g}f3/2g/2a | \
{ef}e3{ag}a2f |
{gef}e3/2c/2{G}c{gde}d3/2B/2{d}c | \
{g}A3{GAG}A2 :|
